src/components/Selfie/assets/glasses-picto.svg

<?xml version="1.0" encoding="UTF-8"?>
<svg width="48px" height="48px" viewBox="0 0 48 48" version="1.1" xmlns="http://www.w3.org/2000/svg" xmlns:xlink="http://www.w3.org/1999/xlink">
    <!-- Generator: sketchtool 58 (101010) - https://sketch.com -->
    <title>2ECF4EF4-7A6B-4553-85EE-194D9C6880E7@1.00x</title>
    <desc>Created with sketchtool.</desc>
    <defs>
        <circle id="path-1" cx="24" cy="24" r="24"></circle>
    </defs>
    <g id="Symbols" stroke="none" stroke-width="1" fill="none" fill-rule="evenodd">
        <g id="glasses-picto">
            <g>
                <mask id="mask-2" fill="white">
                    <use xlink:href="#path-1"></use>
                </mask>
                <use id="Mask" fill="#D5DAE0" xlink:href="#path-1"></use>
                <circle id="Oval-4" fill="#F7F9FA" mask="url(#mask-2)" cx="15" cy="24" r="7"></circle>
                <circle id="Oval-4" fill="#F7F9FA" mask="url(#mask-2)" cx="33" cy="24" r="7"></circle>
                <path d="M43,23.2 L40.9956044,23.2 C40.578022,19.1578947 37.1956044,16 33.1032967,16 C30.5142857,16 28.2175824,17.2631579 26.756044,19.2 C26.1296703,18.7789474 25.2527473,18.4 24,18.4 C22.7472527,18.4 21.8285714,18.7789474 21.243956,19.2 C19.7824176,17.2631579 17.4857143,16 14.8967033,16 C10.8043956,16 7.42197802,19.1578947 7.0043956,23.2 L5,23.2 L5,24.8 L7.0043956,24.8 C7.42197802,28.8421053 10.8043956,32 14.8967033,32 C19.2395604,32 22.8307692,28.4210526 22.8307692,24 C22.8307692,22.7789474 22.5384615,21.6421053 22.0791209,20.5894737 C22.4549451,20.2947368 23.0813187,20 24,20 C24.9186813,20 25.5450549,20.2947368 25.9208791,20.5894737 C25.4197802,21.6421053 25.1692308,22.7789474 25.1692308,24 C25.1692308,28.3789474 28.7186813,32 33.1032967,32 C37.1956044,32 40.578022,28.8421053 40.9956044,24.8 L43,24.8 L43,23.2 Z M14.8967033,30.4 C11.389011,30.4 8.54945055,27.5368421 8.54945055,24 C8.54945055,20.4631579 11.389011,17.6 14.8967033,17.6 C17.0681319,17.6 18.989011,18.7368421 20.1582418,20.4210526 C20.1582418,20.4210526 20.1860806,20.4631579 20.2417582,20.5473684 C20.8681319,21.5578947 21.2857143,22.7368421 21.2857143,24 C21.243956,27.5368421 18.3626374,30.4 14.8967033,30.4 Z M33.1032967,30.4 C29.5956044,30.4 26.756044,27.5368421 26.756044,24 C26.756044,22.7368421 27.1318681,21.5157895 27.8,20.5473684 C27.8556777,20.4631579 27.8835165,20.4210526 27.8835165,20.4210526 C29.010989,18.7368421 30.9736264,17.6 33.1450549,17.6 C36.6527473,17.6 39.4923077,20.4631579 39.4923077,24 C39.4505495,27.5368421 36.5692308,30.4 33.1032967,30.4 Z" id="Shape" fill="#2B2D33" mask="url(#mask-2)"></path>
            </g>
        </g>
    </g>
</svg>

<svg width="48" height="48" xmlns="http://www.w3.org/2000/svg" xmlns:xlink="http://www.w3.org/1999/xlink">
  <defs>
    <circle id="a" cx="24" cy="24" r="24"/>
  </defs>
  <g fill="none" fill-rule="evenodd">
    <mask id="b" fill="#fff">
      <use xlink:href="#a"/>
    </mask>
    <use fill="#D5DAE0" xlink:href="#a"/>
    <circle fill="#F7F9FA" mask="url(#b)" cx="15" cy="24" r="7"/>
    <circle fill="#F7F9FA" mask="url(#b)" cx="33" cy="24" r="7"/>
    <path d="M43 23.2h-2.004c-.418-4.042-3.8-7.2-7.893-7.2-2.589 0-4.885 1.263-6.347 3.2-.626-.421-1.503-.8-2.756-.8s-2.171.379-2.756.8c-1.462-1.937-3.758-3.2-6.347-3.2-4.093 0-7.475 3.158-7.893 7.2H5v1.6h2.004c.418 4.042 3.8 7.2 7.893 7.2 4.343 0 7.934-3.579 7.934-8 0-1.221-.293-2.358-.752-3.41.376-.295 1.002-.59 1.921-.59s1.545.295 1.92.59a7.832 7.832 0 0 0-.75 3.41c0 4.379 3.549 8 7.933 8 4.093 0 7.475-3.158 7.893-7.2H43v-1.6zm-28.103 7.2c-3.508 0-6.348-2.863-6.348-6.4 0-3.537 2.84-6.4 6.348-6.4 2.171 0 4.092 1.137 5.261 2.821l.084.126c.626 1.01 1.044 2.19 1.044 3.453-.042 3.537-2.923 6.4-6.39 6.4zm18.206 0c-3.507 0-6.347-2.863-6.347-6.4 0-1.263.376-2.484 1.044-3.453l.084-.126c1.127-1.684 3.09-2.821 5.261-2.821 3.508 0 6.347 2.863 6.347 6.4-.041 3.537-2.923 6.4-6.389 6.4z" fill="#2B2D33" mask="url(#b)"/>
  </g>
</svg>
